X:28
T:Bonny Kate
R:polka 32
S:Ashover MS
B:English Choice, Nick Barber, pub mally.com
M:2/2
L:1/8
Q:1/4=180
K:G
|:"C"d2e2 f2|"G"g3f g3f|"G"g2d2 d2B2|
"C"cde2 "D"d3c|"G"B2G2 G3A|
"Em"B2G2 G2AB|"Am"c2A2 A4|
"G"Bcd2 "D"c2B2|1"D"A2:|2A8||
:"G"B2G4AB|"Am"c2A2"Bm"d2B2|
"C"e2c2 c2e2|"D"f4 d2ef|
"G"g3f g2fe|"D"d2ef "G"g2B2|
"C"cde2 "D"d3c|1"G"B2G2 G4:|2"G"B2|]

